src/components/icons/kontakter.svg

<?xml version="1.0" encoding="UTF-8"?>
<svg width="38px" height="40px" viewBox="0 0 38 40" version="1.1" xmlns="http://www.w3.org/2000/svg" xmlns:xlink="http://www.w3.org/1999/xlink">
    <!-- Generator: Sketch 50 (54983) - http://www.bohemiancoding.com/sketch -->
    <title>Page 1</title>
    <desc>Created with Sketch.</desc>
    <defs></defs>
    <g id="Page-1" stroke="none" stroke-width="1" fill="none" fill-rule="evenodd">
        <g id="Workers-view" transform="translate(-169.000000, -384.000000)" fill="#FFFFFF">
            <g id="Page-1" transform="translate(169.000000, 384.000000)">
                <path d="M27.4952979,33.9597757 L33.099026,36.7027942 L31.4251602,30.9311598 L32.5143391,30.6125101 L33.3801869,31.3512126 L32.5143391,30.6125101 L31.4251602,30.9311598 C31.3168494,30.5608459 31.3996001,30.1664648 31.6494499,29.8725241 C34.1259022,26.9469158 35.6202084,23.1706123 35.6211669,19.0297711 C35.6202084,14.4018099 33.7562395,10.2218193 30.7375941,7.1874273 C27.7163926,4.15592334 23.554892,2.28317462 18.9470485,2.28253283 C14.338566,2.28317462 10.1777045,4.15592334 7.15650298,7.1874273 C4.1378575,10.2218193 2.27356914,14.4018099 2.27356914,19.0297711 C2.27356914,23.6577324 4.1378575,27.837402 7.15650298,30.871794 C10.1777045,33.9042607 14.338566,35.7773303 18.9470485,35.7773303 C21.6624876,35.7773303 24.2165786,35.1227026 26.4821602,33.9671563 C26.6435082,33.8853278 26.8198728,33.8439323 26.9971958,33.8439323 C27.1671703,33.8439323 27.3368254,33.8830816 27.4952979,33.9597757 M34.4099386,39.8847984 L26.9978348,36.2554653 C24.5536521,37.4100489 21.8244746,38.0595422 18.9470485,38.0595422 C8.48243215,38.0589005 0.00127800401,29.5400759 0,19.0297711 C0.00127800401,8.52074993 8.48243215,0.000962687824 18.9470485,0 C29.4110259,0.000962687824 37.892819,8.52074993 37.8947361,19.0297711 C37.8960141,23.5040232 36.3499487,27.6243271 33.7731731,30.871794 L35.9991366,38.5392817 C36.124381,38.9724912 35.98412,39.4403575 35.6400175,39.7310892 C35.4320223,39.9088656 35.1713095,40 34.9080407,40 C34.7380661,40 34.5677721,39.9624552 34.4099386,39.8847984" id="Fill-1"></path>
            </g>
        </g>
    </g>
</svg>

<svg width="38" height="40" xmlns="http://www.w3.org/2000/svg"><path d="M27.495 33.96l5.604 2.743-1.674-5.772 1.09-.318.865.738-.866-.738-1.089.318a1.135 1.135 0 0 1 .224-1.058 16.716 16.716 0 0 0 3.972-10.843 16.732 16.732 0 0 0-4.883-11.843c-3.022-3.031-7.183-4.904-11.791-4.904-4.608 0-8.77 1.873-11.79 4.904A16.727 16.727 0 0 0 2.274 19.03c0 4.628 1.864 8.807 4.883 11.842 3.02 3.032 7.182 4.905 11.79 4.905 2.715 0 5.27-.654 7.535-1.81a1.138 1.138 0 0 1 1.013-.007m6.915 5.925l-7.412-3.63a18.802 18.802 0 0 1-8.051 1.805C8.482 38.059.001 29.54 0 19.03.001 8.52 8.482 0 18.947 0c10.464.001 18.946 8.52 18.948 19.03a18.992 18.992 0 0 1-4.122 11.842L36 38.539c.125.433-.015.901-.359 1.192a1.125 1.125 0 0 1-1.23.154" fill="#FFF" fill-rule="evenodd"/></svg>
